X:1
T:Valsa
T:Valsa
T:Joao Gilberto
C:Joao Gilberto
%%score 1 2
L:1/8
Q:1/4=180
M:3/4
K:E
V:1 treble nm="Voice" snm="Vo."
V:2 treble-8 nm="Classical Guitar" snm="Guit."
V:1
"^\n" z6 |:S G6 | B,6 | C2 D2 E2 | F2 G2 A2 | B4 E2- | E2 z4 | G6 | F6 | E6 | z2 D2 C2 | E6 | F6 | %13
 D6 | z2 c2 G2 | B6 | =D6 | G6 | B,6 | C2 D2 E2 | F2 G2 A2 | B4 E2- | E2 z4 | F6 | G6 | E6 | %26
 z2 D2 C2 | E6 | E6 | E6 |1 z6 :| z4 G,2 | E4 C2 | B,4 G,2 | E4 C2 | B,4 G2 | A4 A2 | A4 E2 | G6 | %39
 z6 | F2 F2 F2 | F4 C2 | E6- | E2 z4 | A2 A2 A2 | A4 G2 | B4 G2- | G2 z4 | F2 F2 F2 | F4 E2 | %50
 G4 E2- | E2 z4 | D4 C2- | C2 z4 | C2 C2 C2 | C2 B,2 ^A,2 | B,4 B,2 | B,2 A,2 G,2 | C4 C2 | %59
 C2 B,2 ^A,2 | B,4 B2 | B2 A2 G2 | A6 | A6 | G6 | z6 | G6 | B,6 | C2 D2 E2 | F2 G2 A2 | B4 E2- | %71
 E2 z4 | G6 | F6 | E6 | z2 D2 C2 | E6 | F6 | D6 | z2 c2 G2 | B6 | =D6 | G6 | B,6 | C2 D2 E2 | %85
 F2 G2 A2 | B6- | B2 z4 | F6 | G6 | E6 | z2 D2 C2 | E6 | E6 | E6 | z6!D.S.! |] %96
V:2
"^B7#5" B,2 [Ad=g]4 |:"^EM7" E,2 [Bdg]4 |"^E69" E,2 [Gcf]4 |"^F#m" F,2 [FAcg]4 |"^B7" B,2 [DAc]4 | %5
"^Bm7" B,2 [A=df]4 |"^E7#5" E,2 [=DG=c]4 |"^AM7" A,2 [Gc]4 |"^G#7" G,2 [F=c]4 |"^GM7" =G,2 [FB]4 | %10
"^F#13" F,2 [E^Ad]4 |"^F#m7" F,2 [FAe]4 |"^B7" B,2 [FAd]4 |"^G#Φ" G,2 [=FBd]4 | %14
"^C#9\n" C2 [=FBd]4 |"^Am7" A,2 [=G=ce]4 |"^D7" =D2 [F=ce]4 |"^EM7" E,2 [Bdg]4 |"^E9" E,2 [G=df]4 | %19
"^AM7" A,2 [Gc]4 |"^Am6" A,2 [F=ce]4 |"^GM7" =G,2 [FB=d]4 |"^E7b9" E,2 [G=d=f]4 | %23
"^AM7" A,2 [Gce]4 |"^G#7" G,2 [F=cd]4 |"^GM7" =G,2 [FB=d]4 |"^F#13" F,2 [E^Ad]4 | %27
"^FM713" =F,2 [EA=d]4 |"^FM7" =F,2 [EA=c]4 |"^EM7" E,2 [Bdg]4 |1"^B7#5" B,2 [Ad=g]4 :| %31
"^C#m/E" E,2 [Gcf]4 |"^F#m/A" A,2 [=Gcf]4 |"^EM7" E,2 [Bdg]4 |"^F#m/A" A,2 [=Gcf]4 | %35
"^FΦ7/G#" G,2 [=FBd]4 |"^Am7" A,2 [=G=ce]4 |"^F#Φ7/A" A,2 [F=ce]4 |"^G#m7" G,2 [FBd]4 | %39
"^FΦ7/G#" G,2 [=FBd]4 |"^F#m7" F,2 [EAc]4 |"^D#Φ7/F#" F,2 [DAc]4 |"^E7" E,2 [G=df]4 | %43
"^A7" A,2 [=Gce]4 |"^Am7" A,2 [=G=ce]4 |"^D7" =D2 [F=ce]4 |"^G#m7" G,2 [FBd]4 |"^C#7" C2 [=FBd]4 | %48
"^F#m7" F,2 [EAc]4 |"^B7" B,2 [DAc]4 |"^C#m/E" E,2 [=DGc]4 |"^Em/G" A,2 [=GBe]4 | %52
"^G#m7" G,2 [FBd]4 |"^C#7" C2 [=FBd]4 |"^A#Φ7" ^A,2 [Gce]4 |"^D#7" D2 [=Gcd]4 | %56
"^G#Φ7" G,2 [FB=d]4 |"^C#7" C2 [=FBc]4 |"^A#Φ7" ^A,2 [Gce]4 |"^D#7/G" A,2 [=Gcd]4 | %60
"^G#Φ7" G,2 [FB=d]4 |"^C#7/F" =G,2 [=FBc]4 |"^F#Φ7" F,2 [EA=c]4 |"^FM7" =F,2 [EA=c]4 | %64
"^EM7" E,2 [Bdg]4 |"^F#m/A" A,2 [=Gcf]4 |"^Fm/G#" G,2 [F=c=f]4 |"^C#7" C2 [=FBd]4 | %68
"^D#m/F#" F,2 [E_Bd]4 |"^B7" B,2 [DAc]4 |"^C#m/E" E,2 [=DGc]4 |"^C+/E" E,2 [=DG=c]4 | %72
"^AM7" A,2 [Gc]4 |"^G#7" G,2 [F=c]4 |"^GM7" =G,2 [FB]4 |"^D#m/F#" F,2 [E^Ad]4 |"^F#m" F,2 [FAca]4 | %77
"^B7" B,2 [FAd]4 |"^FΦ7/G#" G,2 [=FBd]4 |"^C#7" C2 [=FBd]4 |"^Am7" A,2 [=G=ce]4 | %81
"^D7" =D2 [F=ce]4 |"^EM7" E,2 [Bdg]4 |"^E7" E,2 [G=df]4 |"^AM7" A,2 [Gc]4 |"^F#Φ7/A" A,2 [F=ce]4 | %86
"^GM7" =G,2 [FB=d]4 |"^Do/G#" E,2 [G=d=f]4 |"^AM7" A,2 [Gce]4 |"^G#7" G,2 [F=cd]4 | %90
"^GM7" =G,2 [FB=d]4 |"^D#m/F#" F,2 [E^Ad]4 |"^Dm/F" =F,2 [EA=d]4 |"^FM7" =F,2 [EA=c]4 | %94
"^EM7" E,2 [Bdg]4 |"^C#m/E" E,2 [Gcf]4 |] %96

